gama.ui.shared/icons_svg/dark/gaml/_output.svg

<svg height="18" viewBox="-886.497 -2806.737 24 18" width="24" xmlns="http://www.w3.org/2000/svg"><path d="m-873.2747-2802.4655v-.3888c0-.6457-.5212-1.1667-1.1667-1.1667h-10.1111c-.6456 0-1.1667.521-1.1667 1.1667v.3888zm0 .7778h-12.4445v8.9445c0 .6455.5211 1.1666 1.1667 1.1666h10.1111c.6455 0 1.1667-.5211 1.1667-1.1666zm-13.2223-1.1666c0-1.0734.8711-1.9445 1.9445-1.9445h10.1111c1.0733 0 1.9444.8711 1.9444 1.9445v10.1111c0 1.0732-.8711 1.9444-1.9444 1.9444h-10.1111c-1.0734 0-1.9445-.8712-1.9445-1.9444zm8.5556 3.8888c0-.6455.5211-1.1665 1.1667-1.1665h.7777c.6456 0 1.1667.521 1.1667 1.1665v4.6667c0 .6456-.5211 1.1668-1.1667 1.1668h-.7777c-.6456 0-1.1667-.5212-1.1667-1.1668zm.7778 0v4.6667c0 .2178.1711.3888.3889.3888h.7777c.2178 0 .3889-.171.3889-.3888v-4.6667c0-.2177-.1711-.3888-.3889-.3888h-.7777c-.2178 0-.3889.1711-.3889.3888zm-6.6111-.3888c-.2178 0-.3889-.1712-.3889-.3889 0-.2178.1711-.3888.3889-.3888h3.8888c.2178 0 .3889.171.3889.3888 0 .2177-.1711.3889-.3889.3889zm0 1.5555c-.2178 0-.3889-.1712-.3889-.3889 0-.2178.1711-.3889.3889-.3889h3.8888c.2178 0 .3889.1711.3889.3889 0 .2177-.1711.3889-.3889.3889zm0 1.5556c-.2178 0-.3889-.1711-.3889-.3888 0-.218.1711-.389.3889-.389h2.3333c.2178 0 .3889.171.3889.389 0 .2177-.1711.3888-.3889.3888zm.7777.7777h2.3334c.6455 0 1.1666.5212 1.1666 1.1667 0 .6456-.5211 1.1668-1.1666 1.1668h-2.3334c-.6455 0-1.1666-.5212-1.1666-1.1668 0-.6455.5211-1.1667 1.1666-1.1667zm0 .7778c-.2177 0-.3889.1711-.3889.3889s.1712.3888.3889.3888h2.3334c.2177 0 .3889-.171.3889-.3888s-.1712-.3889-.3889-.3889z" fill="#999"/></svg>

<?xml version="1.0" encoding="UTF-8" standalone="no"?>
<!DOCTYPE svg PUBLIC "-//W3C//DTD SVG 1.1//EN" "http://www.w3.org/Graphics/SVG/1.1/DTD/svg11.dtd">
<svg xmlns:dc="http://purl.org/dc/elements/1.1/" xmlns:xl="http://www.w3.org/1999/xlink" version="1.1" xmlns="http://www.w3.org/2000/svg" viewBox="-886.497 -2806.737 24 18" width="24" height="18">
  <defs/>
  <g id="SOURCES" stroke-dasharray="none" stroke="none" stroke-opacity="1" fill="none" fill-opacity="1">
    <title>SOURCES</title>
    <g id="SOURCES_New">
      <title>New</title>
      <g id="Group_10463">
        <g id="Graphic_10326"/>
        <g id="Group_10327">
          <title>desktop-3</title>
          <g id="Graphic_10328">
            <path d="M -873.2747 -2802.4655 L -873.2747 -2802.8543 C -873.2747 -2803.5 -873.7959 -2804.021 -874.4414 -2804.021 L -884.5525 -2804.021 C -885.1981 -2804.021 -885.7192 -2803.5 -885.7192 -2802.8543 L -885.7192 -2802.4655 Z M -873.2747 -2801.6877 L -885.7192 -2801.6877 L -885.7192 -2792.7432 C -885.7192 -2792.0977 -885.1981 -2791.5766 -884.5525 -2791.5766 L -874.4414 -2791.5766 C -873.7959 -2791.5766 -873.2747 -2792.0977 -873.2747 -2792.7432 Z M -886.497 -2802.8543 C -886.497 -2803.9277 -885.6259 -2804.7988 -884.5525 -2804.7988 L -874.4414 -2804.7988 C -873.3681 -2804.7988 -872.497 -2803.9277 -872.497 -2802.8543 L -872.497 -2792.7432 C -872.497 -2791.67 -873.3681 -2790.7988 -874.4414 -2790.7988 L -884.5525 -2790.7988 C -885.6259 -2790.7988 -886.497 -2791.67 -886.497 -2792.7432 Z M -877.9414 -2798.9655 C -877.9414 -2799.611 -877.4203 -2800.132 -876.7747 -2800.132 L -875.997 -2800.132 C -875.3514 -2800.132 -874.8303 -2799.611 -874.8303 -2798.9655 L -874.8303 -2794.2988 C -874.8303 -2793.6532 -875.3514 -2793.132 -875.997 -2793.132 L -876.7747 -2793.132 C -877.4203 -2793.132 -877.9414 -2793.6532 -877.9414 -2794.2988 Z M -877.1636 -2798.9655 L -877.1636 -2794.2988 C -877.1636 -2794.081 -876.9925 -2793.91 -876.7747 -2793.91 L -875.997 -2793.91 C -875.7792 -2793.91 -875.6081 -2794.081 -875.6081 -2794.2988 L -875.6081 -2798.9655 C -875.6081 -2799.1832 -875.7792 -2799.3543 -875.997 -2799.3543 L -876.7747 -2799.3543 C -876.9925 -2799.3543 -877.1636 -2799.1832 -877.1636 -2798.9655 Z M -883.7747 -2799.3543 C -883.9925 -2799.3543 -884.1636 -2799.5255 -884.1636 -2799.7432 C -884.1636 -2799.961 -883.9925 -2800.132 -883.7747 -2800.132 L -879.8859 -2800.132 C -879.6681 -2800.132 -879.497 -2799.961 -879.497 -2799.7432 C -879.497 -2799.5255 -879.6681 -2799.3543 -879.8859 -2799.3543 Z M -883.7747 -2797.7988 C -883.9925 -2797.7988 -884.1636 -2797.97 -884.1636 -2798.1877 C -884.1636 -2798.4055 -883.9925 -2798.5766 -883.7747 -2798.5766 L -879.8859 -2798.5766 C -879.6681 -2798.5766 -879.497 -2798.4055 -879.497 -2798.1877 C -879.497 -2797.97 -879.6681 -2797.7988 -879.8859 -2797.7988 Z M -883.7747 -2796.2432 C -883.9925 -2796.2432 -884.1636 -2796.4143 -884.1636 -2796.632 C -884.1636 -2796.85 -883.9925 -2797.021 -883.7747 -2797.021 L -881.4414 -2797.021 C -881.2236 -2797.021 -881.0525 -2796.85 -881.0525 -2796.632 C -881.0525 -2796.4143 -881.2236 -2796.2432 -881.4414 -2796.2432 Z M -882.997 -2795.4655 L -880.6636 -2795.4655 C -880.0181 -2795.4655 -879.497 -2794.9443 -879.497 -2794.2988 C -879.497 -2793.6532 -880.0181 -2793.132 -880.6636 -2793.132 L -882.997 -2793.132 C -883.6425 -2793.132 -884.1636 -2793.6532 -884.1636 -2794.2988 C -884.1636 -2794.9443 -883.6425 -2795.4655 -882.997 -2795.4655 Z M -882.997 -2794.6877 C -883.2147 -2794.6877 -883.3859 -2794.5166 -883.3859 -2794.2988 C -883.3859 -2794.081 -883.2147 -2793.91 -882.997 -2793.91 L -880.6636 -2793.91 C -880.4459 -2793.91 -880.2747 -2794.081 -880.2747 -2794.2988 C -880.2747 -2794.5166 -880.4459 -2794.6877 -880.6636 -2794.6877 Z" fill="#999"/>
          </g>
        </g>
      </g>
    </g>
  </g>
</svg>
